src/Group 13.svg

<svg width="79" height="79" viewBox="0 0 79 79" fill="none" xmlns="http://www.w3.org/2000/svg">
<g filter="url(#filter0_d_305_11)">
<circle cx="39.5" cy="31.5" r="20.5" fill="#272727"/>
<g filter="url(#filter1_d_305_11)">
<path fill-rule="evenodd" clip-rule="evenodd" d="M50.8327 23.3868C51.1665 23.7046 51.354 24.1356 51.354 24.5849C51.354 25.0342 51.1665 25.4652 50.8327 25.7829L37.4856 38.4842C37.3092 38.6521 37.0998 38.7853 36.8693 38.8761C36.6388 38.967 36.3918 39.0138 36.1423 39.0138C35.8928 39.0138 35.6458 38.967 35.4153 38.8761C35.1849 38.7853 34.9754 38.6521 34.7991 38.4842L28.1677 32.1748C27.9976 32.0185 27.8619 31.8315 27.7686 31.6248C27.6753 31.418 27.6261 31.1957 27.6241 30.9707C27.622 30.7457 27.6671 30.5225 27.7566 30.3143C27.8462 30.106 27.9784 29.9168 28.1456 29.7577C28.3128 29.5986 28.5116 29.4728 28.7304 29.3876C28.9493 29.3024 29.1838 29.2595 29.4202 29.2614C29.6567 29.2634 29.8903 29.3101 30.1076 29.399C30.3248 29.4878 30.5213 29.6169 30.6856 29.7787L36.1417 34.9708L48.3135 23.3868C48.4789 23.2294 48.6753 23.1045 48.8914 23.0192C49.1075 22.934 49.3392 22.8901 49.5731 22.8901C49.807 22.8901 50.0387 22.934 50.2548 23.0192C50.4709 23.1045 50.6673 23.2294 50.8327 23.3868Z" fill="white"/>
</g>
</g>
<defs>
<filter id="filter0_d_305_11" x="0" y="0" width="79" height="79" filterUnits="userSpaceOnUse" color-interpolation-filters="sRGB">
<feFlood flood-opacity="0" result="BackgroundImageFix"/>
<feColorMatrix in="SourceAlpha" type="matrix" values="0 0 0 0 0 0 0 0 0 0 0 0 0 0 0 0 0 0 127 0" result="hardAlpha"/>
<feOffset dy="8"/>
<feGaussianBlur stdDeviation="9.5"/>
<feComposite in2="hardAlpha" operator="out"/>
<feColorMatrix type="matrix" values="0 0 0 0 0 0 0 0 0 0 0 0 0 0 0 0 0 0 0.25 0"/>
<feBlend mode="normal" in2="BackgroundImageFix" result="effect1_dropShadow_305_11"/>
<feBlend mode="normal" in="SourceGraphic" in2="effect1_dropShadow_305_11" result="shape"/>
</filter>
<filter id="filter1_d_305_11" x="7.62402" y="6.89014" width="63.73" height="56.1235" filterUnits="userSpaceOnUse" color-interpolation-filters="sRGB">
<feFlood flood-opacity="0" result="BackgroundImageFix"/>
<feColorMatrix in="SourceAlpha" type="matrix" values="0 0 0 0 0 0 0 0 0 0 0 0 0 0 0 0 0 0 127 0" result="hardAlpha"/>
<feOffset dy="4"/>
<feGaussianBlur stdDeviation="10"/>
<feComposite in2="hardAlpha" operator="out"/>
<feColorMatrix type="matrix" values="0 0 0 0 1 0 0 0 0 1 0 0 0 0 1 0 0 0 0.25 0"/>
<feBlend mode="normal" in2="BackgroundImageFix" result="effect1_dropShadow_305_11"/>
<feBlend mode="normal" in="SourceGraphic" in2="effect1_dropShadow_305_11" result="shape"/>
</filter>
</defs>
</svg>

<svg xmlns="http://www.w3.org/2000/svg" width="79" height="79" fill="none"><g filter="url(#a)"><circle cx="39.5" cy="31.5" r="20.5" fill="#272727"/><g filter="url(#b)"><path fill="#fff" fill-rule="evenodd" d="M50.833 23.387c.334.318.521.749.521 1.198 0 .45-.188.88-.521 1.198L37.486 38.484a1.907 1.907 0 0 1-.617.392 1.983 1.983 0 0 1-1.454 0c-.23-.09-.44-.224-.616-.392l-6.631-6.31a1.695 1.695 0 0 1-.4-.55 1.624 1.624 0 0 1-.011-1.31c.09-.208.221-.397.389-.556a1.79 1.79 0 0 1 .584-.37 1.862 1.862 0 0 1 1.378.011c.217.089.413.218.578.38l5.456 5.192 12.171-11.584c.166-.158.362-.282.578-.368a1.86 1.86 0 0 1 1.364 0c.216.086.412.21.578.368Z" clip-rule="evenodd"/></g></g><defs><filter id="a" width="79" height="79" x="0" y="0" color-interpolation-filters="sRGB" filterUnits="userSpaceOnUse"><feFlood flood-opacity="0" result="BackgroundImageFix"/><feColorMatrix in="SourceAlpha" result="hardAlpha" values="0 0 0 0 0 0 0 0 0 0 0 0 0 0 0 0 0 0 127 0"/><feOffset dy="8"/><feGaussianBlur stdDeviation="9.5"/><feComposite in2="hardAlpha" operator="out"/><feColorMatrix values="0 0 0 0 0 0 0 0 0 0 0 0 0 0 0 0 0 0 0.25 0"/><feBlend in2="BackgroundImageFix" result="effect1_dropShadow_305_11"/><feBlend in="SourceGraphic" in2="effect1_dropShadow_305_11" result="shape"/></filter><filter id="b" width="63.73" height="56.123" x="7.624" y="6.89" color-interpolation-filters="sRGB" filterUnits="userSpaceOnUse"><feFlood flood-opacity="0" result="BackgroundImageFix"/><feColorMatrix in="SourceAlpha" result="hardAlpha" values="0 0 0 0 0 0 0 0 0 0 0 0 0 0 0 0 0 0 127 0"/><feOffset dy="4"/><feGaussianBlur stdDeviation="10"/><feComposite in2="hardAlpha" operator="out"/><feColorMatrix values="0 0 0 0 1 0 0 0 0 1 0 0 0 0 1 0 0 0 0.25 0"/><feBlend in2="BackgroundImageFix" result="effect1_dropShadow_305_11"/><feBlend in="SourceGraphic" in2="effect1_dropShadow_305_11" result="shape"/></filter></defs></svg>
